Dominus_Dark_Funeral/scalable/apps/CMakeSetup.svg

<svg xmlns="http://www.w3.org/2000/svg" xmlns:xlink="http://www.w3.org/1999/xlink" width="48" height="48" viewBox="0 0 12.7 12.7"><defs><linearGradient id="e"><stop offset="0" stop-color="green"/><stop offset="1" stop-color="#87de87"/></linearGradient><linearGradient id="d"><stop offset="0" stop-color="#162d50"/><stop offset="1" stop-color="#87aade"/></linearGradient><linearGradient id="c"><stop offset="0" stop-color="#f55"/><stop offset="1" stop-color="#a00"/></linearGradient><linearGradient id="b"><stop offset="0"/><stop offset="1" stop-opacity="0"/></linearGradient><linearGradient id="a"><stop offset="0" stop-color="#999"/><stop offset="1" stop-color="#fff"/></linearGradient><linearGradient xlink:href="#c" id="g" x1="7.44" y1="7.35" x2="8.56" y2="-.22" gradientUnits="userSpaceOnUse"/><linearGradient xlink:href="#d" id="f" x1=".44" y1="5.24" x2="7.05" y2="3.97" gradientUnits="userSpaceOnUse"/><linearGradient xlink:href="#e" id="h" x1="8.04" y1="11.58" x2="4.23" y2="6.1" gradientUnits="userSpaceOnUse"/></defs><path d="M6.35.36c-1.48 0-2.66.27-3.53.83a3.51 3.51 0 0 0-1.6 3.12c0 1.83 1.48 4.28 1.93 4.98.52.81 1.08 1.54 1.58 2.07.65.67 1.16.99 1.62.99.46 0 .97-.32 1.62-1 .5-.52 1.06-1.25 1.58-2.05.45-.7 1.91-3.16 1.91-4.99 0-1.36-.54-2.43-1.58-3.11A6.46 6.46 0 0 0 6.35.36z" fill="#ccc"/><path d="M6.56.1a6.75 6.75 0 0 0-.21 0c-.77 0-1.46.07-2.08.21a5.86 5.86 0 0 0-1.61.65 3.67 3.67 0 0 0-.3.22 3.67 3.67 0 0 0-.27.24 3.67 3.67 0 0 0-.25.27 3.67 3.67 0 0 0-.22.3 3.67 3.67 0 0 0-.19.3 3.67 3.67 0 0 0-.16.34 3.67 3.67 0 0 0-.12.34 3.67 3.67 0 0 0-.09.36 3.67 3.67 0 0 0-.05.36 3.67 3.67 0 0 0-.01.37 3.67 3.67 0 0 0 0 .16c0 .48.1 1 .25 1.52s.36 1.04.58 1.52c.12.26.2.35.32.58l4.9-4.08z" fill="url(#f)"/><path d="M10.24 8.42c.22-.38.39-.64.63-1.16.22-.48.42-1 .57-1.52a4.63 4.63 0 0 0 .14-2.52 3.74 3.74 0 0 0-.83-1.64c-.2-.23-.44-.43-.71-.61a6.75 6.75 0 0 0-.6-.3A6.75 6.75 0 0 0 8.8.43a6.75 6.75 0 0 0-.65-.18 6.75 6.75 0 0 0-.67-.11 6.75 6.75 0 0 0-.67-.05 6.75 6.75 0 0 0-.28 0l.9 7.26z" fill="url(#g)"/><path d="M2.14 7.84a14.78 14.78 0 0 0 2.52 3.74c.34.35.64.6.92.78.28.17.53.25.77.25s.5-.08.77-.25c.28-.17.58-.43.92-.78a15.2 15.2 0 0 0 1.65-2.15c.11-.17.36-.67.55-1.01l-6-2.32z" fill="url(#h)"/><path d="M6.35.1C4.81.1 3.57.38 2.66.96A3.67 3.67 0 0 0 1 4.22c0 1.91 1.54 4.47 2.01 5.2.54.85 1.13 1.61 1.65 2.16.68.7 1.21 1.03 1.69 1.03s1.01-.33 1.69-1.03a15.2 15.2 0 0 0 1.65-2.15c.47-.74 2-3.3 2-5.21 0-1.42-.57-2.54-1.65-3.25A6.75 6.75 0 0 0 6.35.1zm0 .03C6.91.15 7.44.2 7.9.31a5.82 5.82 0 0 1 1.6.66 3.65 3.65 0 0 1 1.24 1.36c.14.27.25.57.32.88a4.61 4.61 0 0 1-.14 2.53c-.15.52-.36 1.04-.58 1.52-.44.97-.95 1.8-1.18 2.17a15.2 15.2 0 0 1-1.65 2.15 4.9 4.9 0 0 1-.92.78.96.96 0 0 1-.24.1.96.96 0 0 1-.24-.1 4.76 4.76 0 0 1-.92-.78 14.41 14.41 0 0 1-1.65-2.15 19.2 19.2 0 0 1-1.18-2.17c-.22-.48-.43-1-.58-1.52a4.6 4.6 0 0 1-.14-2.52 3.73 3.73 0 0 1 .84-1.64 3.65 3.65 0 0 1 1.45-1A6.83 6.83 0 0 1 6.35.13z" opacity=".2"/></svg>

<?xml version="1.0" encoding="UTF-8" standalone="no"?>
<svg
   xmlns:dc="http://purl.org/dc/elements/1.1/"
   xmlns:cc="http://creativecommons.org/ns#"
   xmlns:rdf="http://www.w3.org/1999/02/22-rdf-syntax-ns#"
   xmlns:svg="http://www.w3.org/2000/svg"
   xmlns="http://www.w3.org/2000/svg"
   xmlns:xlink="http://www.w3.org/1999/xlink"
   xmlns:sodipodi="http://sodipodi.sourceforge.net/DTD/sodipodi-0.dtd"
   xmlns:inkscape="http://www.inkscape.org/namespaces/inkscape"
   width="48"
   height="48"
   viewBox="0 0 12.7 12.7"
   version="1.1"
   id="svg42"
   sodipodi:docname="CMakeSetup.svg"
   inkscape:version="0.92.4 (5da689c313, 2019-01-14)">
  <metadata
     id="metadata46">
    <rdf:RDF>
      <cc:Work
         rdf:about="">
        <dc:format>image/svg+xml</dc:format>
        <dc:type
           rdf:resource="http://purl.org/dc/dcmitype/StillImage" />
        <dc:title></dc:title>
      </cc:Work>
    </rdf:RDF>
  </metadata>
  <sodipodi:namedview
     pagecolor="#ffffff"
     bordercolor="#666666"
     borderopacity="1"
     objecttolerance="10"
     gridtolerance="10"
     guidetolerance="10"
     inkscape:pageopacity="0"
     inkscape:pageshadow="2"
     inkscape:window-width="1112"
     inkscape:window-height="480"
     id="namedview44"
     showgrid="false"
     inkscape:zoom="4.9166667"
     inkscape:cx="2.1355932"
     inkscape:cy="24"
     inkscape:window-x="0"
     inkscape:window-y="25"
     inkscape:window-maximized="0"
     inkscape:current-layer="svg42" />
  <defs
     id="defs30">
    <linearGradient
       id="e">
      <stop
         offset="0"
         stop-color="green"
         id="stop2" />
      <stop
         offset="1"
         stop-color="#87de87"
         id="stop4" />
    </linearGradient>
    <linearGradient
       id="d">
      <stop
         offset="0"
         stop-color="#162d50"
         id="stop7" />
      <stop
         offset="1"
         stop-color="#87aade"
         id="stop9" />
    </linearGradient>
    <linearGradient
       id="c">
      <stop
         offset="0"
         stop-color="#f55"
         id="stop12" />
      <stop
         offset="1"
         stop-color="#a00"
         id="stop14" />
    </linearGradient>
    <linearGradient
       id="b">
      <stop
         offset="0"
         id="stop17" />
      <stop
         offset="1"
         stop-opacity="0"
         id="stop19" />
    </linearGradient>
    <linearGradient
       id="a">
      <stop
         offset="0"
         stop-color="#999"
         id="stop22" />
      <stop
         offset="1"
         stop-color="#fff"
         id="stop24" />
    </linearGradient>
    <linearGradient
       xlink:href="#c"
       id="g"
       x1="7.44"
       y1="7.35"
       x2="8.56"
       y2="-.22"
       gradientUnits="userSpaceOnUse" />
    <linearGradient
       xlink:href="#d"
       id="f"
       x1=".44"
       y1="5.24"
       x2="7.05"
       y2="3.97"
       gradientUnits="userSpaceOnUse" />
    <linearGradient
       xlink:href="#e"
       id="h"
       x1="8.04"
       y1="11.58"
       x2="4.23"
       y2="6.1"
       gradientUnits="userSpaceOnUse" />
  </defs>
  <path
     d="m 6.35,0.36 c -1.48,0 -2.66,0.27 -3.53,0.83 a 3.51,3.51 0 0 0 -1.6,3.12 c 0,1.83 1.48,4.28 1.93,4.98 0.52,0.81 1.08,1.54 1.58,2.07 0.65,0.67 1.16,0.99 1.62,0.99 0.46,0 0.97,-0.32 1.62,-1 C 8.47,10.83 9.03,10.1 9.55,9.3 10,8.6 11.46,6.14 11.46,4.31 11.46,2.95 10.92,1.88 9.88,1.2 A 6.46,6.46 0 0 0 6.35,0.36 Z"
     id="path32"
     inkscape:connector-curvature="0"
     style="fill:#cccccc" />
  <path
     d="m 6.56,0.1 a 6.75,6.75 0 0 0 -0.21,0 C 5.58,0.1 4.89,0.17 4.27,0.31 A 5.86,5.86 0 0 0 2.66,0.96 3.67,3.67 0 0 0 2.36,1.18 3.67,3.67 0 0 0 2.09,1.42 3.67,3.67 0 0 0 1.84,1.69 3.67,3.67 0 0 0 1.62,1.99 3.67,3.67 0 0 0 1.43,2.29 3.67,3.67 0 0 0 1.27,2.63 3.67,3.67 0 0 0 1.15,2.97 3.67,3.67 0 0 0 1.06,3.33 3.67,3.67 0 0 0 1.01,3.69 3.67,3.67 0 0 0 1,4.06 3.67,3.67 0 0 0 1,4.22 c 0,0.48 0.1,1 0.25,1.52 0.15,0.52 0.36,1.04 0.58,1.52 0.12,0.26 0.2,0.35 0.32,0.58 l 4.9,-4.08 z"
     id="path34"
     style="fill:url(#f)"
     inkscape:connector-curvature="0" />
  <path
     d="m 10.24,8.42 c 0.22,-0.38 0.39,-0.64 0.63,-1.16 0.22,-0.48 0.42,-1 0.57,-1.52 A 4.63,4.63 0 0 0 11.58,3.22 3.74,3.74 0 0 0 10.75,1.58 C 10.55,1.35 10.31,1.15 10.04,0.97 A 6.75,6.75 0 0 0 9.44,0.67 6.75,6.75 0 0 0 8.8,0.43 6.75,6.75 0 0 0 8.15,0.25 6.75,6.75 0 0 0 7.48,0.14 6.75,6.75 0 0 0 6.81,0.09 a 6.75,6.75 0 0 0 -0.28,0 l 0.9,7.26 z"
     id="path36"
     style="fill:url(#g)"
     inkscape:connector-curvature="0" />
  <path
     d="m 2.14,7.84 a 14.78,14.78 0 0 0 2.52,3.74 c 0.34,0.35 0.64,0.6 0.92,0.78 0.28,0.17 0.53,0.25 0.77,0.25 0.24,0 0.5,-0.08 0.77,-0.25 C 7.4,12.19 7.7,11.93 8.04,11.58 A 15.2,15.2 0 0 0 9.69,9.43 C 9.8,9.26 10.05,8.76 10.24,8.42 l -6,-2.32 z"
     id="path38"
     style="fill:url(#h)"
     inkscape:connector-curvature="0" />
  <path
     d="M 6.35,0.1 C 4.81,0.1 3.57,0.38 2.66,0.96 A 3.67,3.67 0 0 0 1,4.22 c 0,1.91 1.54,4.47 2.01,5.2 0.54,0.85 1.13,1.61 1.65,2.16 0.68,0.7 1.21,1.03 1.69,1.03 0.48,0 1.01,-0.33 1.69,-1.03 A 15.2,15.2 0 0 0 9.69,9.43 c 0.47,-0.74 2,-3.3 2,-5.21 0,-1.42 -0.57,-2.54 -1.65,-3.25 A 6.75,6.75 0 0 0 6.35,0.1 Z m 0,0.03 C 6.91,0.15 7.44,0.2 7.9,0.31 a 5.82,5.82 0 0 1 1.6,0.66 3.65,3.65 0 0 1 1.24,1.36 c 0.14,0.27 0.25,0.57 0.32,0.88 A 4.61,4.61 0 0 1 10.92,5.74 C 10.77,6.26 10.56,6.78 10.34,7.26 9.9,8.23 9.39,9.06 9.16,9.43 A 15.2,15.2 0 0 1 7.51,11.58 4.9,4.9 0 0 1 6.59,12.36 0.96,0.96 0 0 1 6.35,12.46 0.96,0.96 0 0 1 6.11,12.36 4.76,4.76 0 0 1 5.19,11.58 14.41,14.41 0 0 1 3.54,9.43 19.2,19.2 0 0 1 2.36,7.26 C 2.14,6.78 1.93,6.26 1.78,5.74 A 4.6,4.6 0 0 1 1.64,3.22 3.73,3.73 0 0 1 2.48,1.58 3.65,3.65 0 0 1 3.93,0.58 6.83,6.83 0 0 1 6.35,0.13 Z"
     id="path40"
     inkscape:connector-curvature="0"
     style="opacity:0.2" />
</svg>
